X:36
T:Pete's Kettle
M:9/8
L:1/8
C:Taz Tarry
S:Copyright B.Tarry 15th. September 1998
Q:3/8=120
K:D
|:d2e fed B2A|def gfe c2A|d2e fed B2A|agf edc d3:|
|:DEF FGA ABc|DEF FGA E2D|DEF GAB cde|afe dce d3:|
|:aff aff afe|aff afe dBA|aaa aaa aaa|ABc cec d3:|

